dist/svg/static/electric-charge-level-threequarter-large.svg

<svg xmlns="http://www.w3.org/2000/svg" width="48" height="48" viewBox="0 0 48 48"><g fill="none" stroke="currentColor" stroke-miterlimit="10"><path d="M41.5 44.5h-19a2 2 0 0 1-2-2v-36a2 2 0 0 1 2-2h19a2 2 0 0 1 2 2v36a2 2 0 0 1-2 2zM23 38.5h18M23 31.5h18M23 24.5h18M23 17.5h18"/><g><path d="M12.5 8.498L4.5 21.5h10l-10 12.996"/><path d="M4.51 28.01L4.5 34.5H11"/></g></g></svg>

<?xml version="1.0" encoding="UTF-8" standalone="no"?>
<svg width="48px" height="48px" viewBox="0 0 48 48" version="1.1" xmlns="http://www.w3.org/2000/svg" xmlns:xlink="http://www.w3.org/1999/xlink">
    <!-- Generator: sketchtool 46.2 (44496) - http://www.bohemiancoding.com/sketch -->
    <title>electric-charge-level-threequarter-large</title>
    <desc>Created with sketchtool.</desc>
    <defs></defs>
    <g id="icons-published" stroke="none" stroke-width="1" fill="none" fill-rule="evenodd">
        <g id="briefing" transform="translate(-1440.000000, -538.000000)"></g>
        <g id="electric-charge-level-threequarter-large" stroke="#000000">
            <path d="M41.5,44.5 L22.5,44.5 C21.4,44.5 20.5,43.6 20.5,42.5 L20.5,6.5 C20.5,5.4 21.4,4.5 22.5,4.5 L41.5,4.5 C42.6,4.5 43.5,5.4 43.5,6.5 L43.5,42.5 C43.5,43.6 42.6,44.5 41.5,44.5 Z M23,38.5 L41,38.5 L23,38.5 Z M23,31.5 L41,31.5 L23,31.5 Z M23,24.5 L41,24.5 L23,24.5 Z M23,17.5 L41,17.5 L23,17.5 Z" id="Shape"></path>
            <polyline id="Shape" points="12.5 8.5 4.5 21.5 14.5 21.5 4.5 34.5"></polyline>
            <polyline id="Shape" points="4.5 28 4.5 34.5 11 34.5"></polyline>
        </g>
    </g>
</svg>
